X:1
T:Title
%%score { ( 1 4 ) | ( 2 3 ) }
L:1/8
M:6/8
K:Ab
V:1 treble nm="Grand Piano"
V:4 treble 
V:2 bass 
V:3 bass 
V:1
 z3 z2[Q:1/4=90] [CE] | [CA]>[CA][CA] [CA]2 [Ec] | [FB]2 F F2 [FA] | G2 G GFG | %4
[M:5/8] [CA]-[CA]- [CA]3 |[M:1/8] [CE] |[M:3/4] [CA]>[CA] [CA] [CA]2 [Ec] | [FB]2 F F2 [FA] | %8
 [EG]>[GB] [Ge] [Gd]2 [DEG] |[M:5/8] [CEA]-[CEA]- [CEA]3 |[M:1/8] A |[M:3/4] c2 cc- c/B/A | %12
 [GB]4- [GB][GB] | A2 AA B[CFA] |[M:5/8] [C=EG]-[CEG]- [CEG]3 |[M:1/8] [B,=EG] | %16
[M:3/4] [A,F]2 [A,FA][DFB] [DFA][A,DF] | [A,CE]2 [A,EA] [A,EA]2 [FB] | z2 z B3 | %19
[M:5/8] [CA]-[CA]- [CA]3 |] %20
V:2
 z3 z2 [A,,A,] | [A,,A,]>[A,,A,][A,,A,] [A,,A,]2 [A,,A,] | [D,A,]2 [D,A,D] [D,D]2 [D,D] | %3
 [E,B,E]2 [E,B,E] [E,B,D]2 [E,B,D] |[M:5/8] [A,,A,]-[A,,A,]- [A,,A,]3 |[M:1/8] [A,,A,] | %6
[M:3/4] [A,,A,]>[A,,A,] [A,,A,] [A,,A,]2 [A,,A,] | [D,A,]2 [D,A,D] [D,D]2 [D,D] | %8
 [E,B,]>[E,B,] [E,B,] [E,B,]2 E, |[M:5/8] A,,-A,,- A,,3 |[M:1/8][K:treble] [A,CE] | %11
[M:3/4] [A,EA]2 [A,EA][A,EA]- [A,EA]/[A,DA]/[K:bass][A,C] | [E,E]4- [E,E][E,D] | z2 z C z2 | %14
[M:5/8] C,-C,- C,3 |[M:1/8] C, |[M:3/4] D,2 D,D, D,D, | A,,2 C, C,2 [D,A,] | [E,A,E]3 .[E,G,E]3 | %19
[M:5/8] [A,,A,]-[A,,A,]- [A,,A,]3 |] %20
V:3
 x6 | x6 | x6 | x6 |[M:5/8] x5 |[M:1/8] x |[M:3/4] x6 | x6 | x6 |[M:5/8] x5 |[M:1/8][K:treble] x | %11
[M:3/4] x5[K:bass] x | x6 | [F,CF]2 [F,CF][F,F]- [F,DF]F, |[M:5/8] x5 |[M:1/8] x |[M:3/4] x6 | x6 | %18
 x6 |[M:5/8] x5 |] %20
V:4
 x6 | x6 | x6 | x6 |[M:5/8] x5 |[M:1/8] x |[M:3/4] x6 | x6 | x6 |[M:5/8] x5 |[M:1/8] x | %11
[M:3/4] x6 | x6 | x6 |[M:5/8] x5 |[M:1/8] x |[M:3/4] x6 | x6 | c4 z D |[M:5/8] x5 |] %20

